X:249
T: Homokmégybe két úton köl bejárni
M:1/4
L:1/4
K:Eb
G<A GF | G E CD | E<C C z |
G<c G<c | B<E G B | c G G  z|
G c G c | B E G<B | c G F z |
G<A GF | G E CD | E<C C z |

